src/pos-icons/current-ac.svg

<svg height="24" viewBox="0 0 24 24" width="24" xmlns="http://www.w3.org/2000/svg"><path d="m16.5 21c-3 0-4.19-4.24-5.45-8.72-.91-3.24-2.05-7.28-3.55-7.28-3.39 0-3.5 6.93-3.5 7h-2c0-.37.06-9 5.5-9 3 0 4.21 4.25 5.47 8.74.86 3.06 2.03 7.26 3.53 7.26 3.44 0 3.53-6.93 3.53-7h2c0 .37-.06 9-5.53 9z"/></svg>

<?xml version="1.0" encoding="UTF-8"?><!DOCTYPE svg PUBLIC "-//W3C//DTD SVG 1.1//EN" "http://www.w3.org/Graphics/SVG/1.1/DTD/svg11.dtd"><svg xmlns="http://www.w3.org/2000/svg" xmlns:xlink="http://www.w3.org/1999/xlink" version="1.1" id="mdi-current-ac" width="24" height="24" viewBox="0 0 24 24"><path d="M16.5,21C13.5,21 12.31,16.76 11.05,12.28C10.14,9.04 9,5 7.5,5C4.11,5 4,11.93 4,12H2C2,11.63 2.06,3 7.5,3C10.5,3 11.71,7.25 12.97,11.74C13.83,14.8 15,19 16.5,19C19.94,19 20.03,12.07 20.03,12H22.03C22.03,12.37 21.97,21 16.5,21Z" /></svg>
